assets/sonr-icons/noble-fill.svg

<svg xmlns="http://www.w3.org/2000/svg" width="24" height="24" fill="none"><path fill="currentColor" d="M12 22c5.523 0 10-4.477 10-10S17.523 2 12 2 2 6.477 2 12s4.477 10 10 10m5.728-6.671a4.4 4.4 0 0 0 .336-1.697V7.1a1.16 1.16 0 0 0-.425-.901 1.16 1.16 0 0 0-1.076-.214 1.17 1.17 0 0 0-.738.668 1.2 1.2 0 0 0-.088.445v6.533a2.1 2.1 0 0 1-4.203-.001v-3.266a1.16 1.16 0 0 0-.719-1.076 1.16 1.16 0 0 0-.89-.001 1.16 1.16 0 0 0-.631.631 1.2 1.2 0 0 0-.089.446v3.267a4.46 4.46 0 0 0 1.798 3.571 4.44 4.44 0 0 0 2.614.859h.022a4.4 4.4 0 0 0 1.692-.337 4.42 4.42 0 0 0 2.399-2.398zM8.425 9.563c.106-.255.261-.487.457-.681a2.1 2.1 0 0 1 1.485-.616 2.106 2.106 0 0 1 2.114 2.101v.31l.001 2.958c0 .23.068.455.197.646s.31.34.522.429a.3.3 0 0 0 .05.015l.034.01v.006a1.121 1.121 0 0 0 .348.054l.016.002v-.002q.224-.002.434-.086a1.17 1.17 0 0 0 .719-1.075v-3.265a4.4 4.4 0 0 0-.175-1.225l-.018-.06a4.4 4.4 0 0 0-.953-1.682l-.006-.023-.007.007a4.43 4.43 0 0 0-3.335-1.443 4.443 4.443 0 0 0-3.294 1.534 4.43 4.43 0 0 0-1.077 2.893v6.531a1.168 1.168 0 0 0 .341.824c.44.44 1.207.44 1.648 0a1.16 1.16 0 0 0 .341-.823V10.37a2.1 2.1 0 0 1 .16-.805l-.002.002zm9.278-4.403a2.11 2.11 0 0 1 1.298 1.94v6.534a5.34 5.34 0 0 1-.986 3.097 5.35 5.35 0 0 1-6.045 2.004 5.38 5.38 0 0 1-2.766-2.07v.234a2.08 2.08 0 0 1-.616 1.486 2.08 2.08 0 0 1-1.486.616 2.08 2.08 0 0 1-1.486-.616A2.1 2.1 0 0 1 5 16.899v-6.532a5.35 5.35 0 0 1 .986-3.098 5.35 5.35 0 0 1 2.592-1.963 5.37 5.37 0 0 1 3.456-.041 5.4 5.4 0 0 1 2.767 2.072v-.236c0-.275.054-.548.159-.803s.26-.486.455-.68A2.08 2.08 0 0 1 16.898 5c.276 0 .55.054.805.16"/></svg>

<svg xmlns="http://www.w3.org/2000/svg" width="24" height="24" fill="none" viewBox="0 0 24 24"><path fill="#000" d="M12 22C17.523 22 22 17.523 22 12C22 6.477 17.523 2 12 2C6.477 2 2 6.477 2 12C2 17.523 6.477 22 12 22ZM17.728 15.329C17.951 14.791 18.065 14.214 18.064 13.632V7.1C18.064 6.946 18.035 6.796 17.976 6.654C17.903 6.477 17.787 6.321 17.639 6.199C17.491 6.077 17.315 5.994 17.128 5.957C16.94 5.92 16.746 5.929 16.563 5.985C16.38 6.041 16.213 6.14 16.078 6.275C15.97 6.383 15.884 6.511 15.825 6.653C15.766 6.795 15.737 6.946 15.737 7.098V13.631C15.736 14.048 15.613 14.451 15.381 14.796C15.151 15.141 14.822 15.41 14.439 15.569C14.054 15.728 13.634 15.769 13.226 15.688C12.819 15.608 12.444 15.409 12.151 15.116C11.955 14.922 11.799 14.69 11.694 14.435C11.589 14.18 11.533 13.906 11.534 13.63V10.364C11.533 10.053 11.412 9.761 11.192 9.541C11.084 9.433 10.956 9.347 10.815 9.288C10.674 9.229 10.522 9.199 10.37 9.199C10.217 9.199 10.065 9.229 9.925 9.287C9.785 9.345 9.655 9.431 9.547 9.54C9.438 9.648 9.352 9.776 9.294 9.918C9.236 10.06 9.205 10.211 9.205 10.364V13.631C9.206 14.325 9.369 15.01 9.681 15.63C9.993 16.25 10.446 16.788 11.003 17.202C11.755 17.755 12.682 18.061 13.617 18.061H13.639C14.22 18.062 14.795 17.947 15.331 17.724C15.869 17.502 16.358 17.176 16.77 16.764C17.182 16.352 17.508 15.864 17.73 15.326L17.728 15.329ZM8.425 9.563C8.531 9.308 8.686 9.076 8.882 8.882C9.077 8.686 9.308 8.532 9.563 8.426C9.818 8.32 10.091 8.266 10.367 8.266C10.644 8.263 10.918 8.316 11.174 8.424C11.56 8.582 11.89 8.851 12.123 9.197C12.356 9.543 12.48 9.951 12.481 10.367V10.677L12.482 13.635C12.482 13.865 12.55 14.09 12.679 14.281C12.808 14.472 12.989 14.621 13.201 14.71C13.218 14.717 13.234 14.721 13.251 14.725C13.262 14.728 13.274 14.731 13.285 14.735V14.741C13.326 14.755 13.368 14.766 13.41 14.775C13.484 14.79 13.559 14.795 13.633 14.795C13.639 14.795 13.644 14.797 13.649 14.797V14.795C13.797 14.793 13.944 14.766 14.083 14.709C14.295 14.621 14.477 14.471 14.605 14.28C14.733 14.089 14.802 13.864 14.802 13.634V10.369C14.801 9.955 14.743 9.543 14.627 9.144L14.609 9.084C14.419 8.46 14.094 7.885 13.656 7.402L13.65 7.379L13.643 7.386C13.221 6.923 12.705 6.556 12.13 6.307C11.555 6.058 10.934 5.934 10.308 5.943C9.682 5.951 9.065 6.092 8.497 6.357C7.929 6.622 7.424 7.003 7.014 7.477C6.32 8.281 5.938 9.308 5.937 10.37V16.901C5.936 17.054 5.966 17.205 6.025 17.347C6.084 17.489 6.17 17.617 6.278 17.725C6.718 18.165 7.485 18.165 7.926 17.725C8.035 17.617 8.12 17.489 8.179 17.348C8.238 17.207 8.267 17.055 8.267 16.902V10.37C8.266 10.094 8.321 9.82 8.427 9.565L8.425 9.567V9.563ZM17.703 5.16C17.958 5.266 18.189 5.421 18.384 5.616C18.579 5.811 18.735 6.041 18.841 6.296C18.947 6.551 19.001 6.824 19.001 7.1V13.634C19.002 14.743 18.658 15.826 18.015 16.731C17.376 17.638 16.47 18.324 15.424 18.694C14.308 19.087 13.094 19.102 11.97 18.735C10.846 18.368 9.873 17.641 9.204 16.665V16.899C9.205 17.175 9.151 17.449 9.045 17.704C8.939 17.959 8.784 18.191 8.588 18.385C8.394 18.581 8.162 18.736 7.907 18.842C7.652 18.948 7.378 19.002 7.102 19.001C6.826 19.002 6.552 18.948 6.297 18.842C6.042 18.736 5.81 18.581 5.616 18.385C5.219 17.988 5 17.46 5 16.899V10.367C4.999 9.257 5.344 8.174 5.986 7.269C6.626 6.361 7.531 5.676 8.578 5.306C9.694 4.912 10.909 4.897 12.034 5.265C13.159 5.633 14.132 6.361 14.801 7.337V7.101C14.801 6.826 14.855 6.553 14.96 6.298C15.065 6.043 15.22 5.812 15.415 5.618C15.609 5.422 15.84 5.267 16.095 5.161C16.35 5.055 16.622 5 16.898 5C17.174 5 17.448 5.054 17.703 5.16Z"/></svg>
